X: 1552
T: the Western Lasses
T: na cailini.de on n-iar.
R: reel
B: O'Neill's 1850 "Music of Ireland" #1552
O: Dunlap
Z: transcribed by John B. Walsh, walsh@math.ubc.ca 8/23/96
Z: Compacted via repeats and multiple endings [JC]
Z: Also added segno to clarify the "problem" with the rhythm when repeating the tune.
M: C|
L: 1/8
K: C
T(GF) !segno!|: EGcG AGcG | EGcG T(ED)(DG) |1 EGcG AGcG | EGDF (EC)(CG) :|2 EGAB cdef | gefd (ec) c2 |]| e3e d2(dc) |
| AcGc AcGc | e3e d2(dc) | ((3ABc) GE T(ED)D2 || efec dedc | ((3ABc) Gc ((3ABc) Gc | ea{b}ag egdc | ((3ABc) GE T(ED) D2 |]
|: efge c2(cd) | ea{b}ag aged | ((3efg) ed [1 T(cB)cd | ea{b}ag ((3efg) dg :|[2 cBcA | ((3ABc) GF (EC)!segno!C2 |]
